X: 042
T: Jump Frogs Jump
%R: march
B: Thompson's Twenty four Country Dances (for the Year 1804) p.4 #2
S: http://folkopedia.efdss.org/images/2/28/Thompson24_1804.PDF  2014-8-2
Z: 2014 John Chambers <jc:trillian.mit.edu>
N: Added "pickup" rest to 2nd strain to fix the rhythm.
M: 2/4
L: 1/16
K: F
c2 |\
f2f2 f2ef | g2g2 g2fg | a2f2f2ef | gfed c2c2 |\
f2f2 f2ef | g2g2 g2fg | afaf dfeg | f4 f2 :|
|: z2 |\
c2c2A2c2 | d^cde d4 | b2g2f2e2 | fefg f4 |\
c2c2A2c2 | d^cde d4 | b2g2f2e2 | f3g f2 :|
% - - - - - - - - - - - - - - - - - - - - - - - - -
%%begintext align
%% Change sides and back again hands across
%% and back again Cross over two Cu: hands 4
%% with the bottom Cu: Right and left with top.
%%endtext
% - - - - - - - - - - - - - - - - - - - - - - - - -
